img/i-behance.svg

<svg height="160" viewBox="0 0 256 160" width="256" xmlns="http://www.w3.org/2000/svg"><path d="m105.315 72.315c5.31-2.671 9.329-5.64 12.065-8.875 4.9-5.794 7.323-13.468 7.323-22.985 0-9.254-2.422-17.184-7.254-23.824-8.059-10.81-21.701-16.344-41.001-16.631h-76.448v156.068h71.289c8.032 0 15.464-.687 22.343-2.096 6.886-1.426 12.823-4.025 17.867-7.841 4.49-3.327 8.216-7.422 11.199-12.28 4.716-7.336 7.063-15.631 7.063-24.886 0-8.971-2.062-16.604-6.157-22.872-4.142-6.275-10.222-10.864-18.289-13.778m-73.786-45.215h34.443c7.568 0 13.806.819 18.706 2.44 5.664 2.341 8.49 7.142 8.49 14.43 0 6.535-2.15 11.11-6.429 13.69-4.3 2.586-9.882 3.88-16.734 3.88h-38.476zm166.354 10.486c10.19 0 19.354 1.812 27.516 5.415 8.177 3.6 14.906 9.302 20.201 17.082 4.832 6.862 7.929 14.822 9.343 23.866.832 5.281 1.16 12.945 1.031 22.906h-85.246c.514 11.569 4.554 19.692 12.258 24.338 4.66 2.894 10.285 4.354 16.869 4.354 6.94 0 12.619-1.768 16.959-5.289 2.402-1.918 4.503-4.557 6.312-7.946h31.229c-.826 6.834-4.619 13.795-11.336 20.865-10.476 11.209-25.149 16.822-44.011 16.822-15.579 0-29.311-4.716-41.2-14.195-11.928-9.459-17.859-24.869-17.859-46.199 0-19.998 5.371-35.339 16.1-46.009 10.77-10.65 24.689-16.01 41.834-16.01zm-127.4 49.773c6.776.062 12.059.953 15.819 2.642 6.729 3.048 10.073 8.616 10.073 16.751 0 9.596-3.467 16.068-10.4 19.484-3.808 1.824-9.172 2.746-16.03 2.746h-38.416v-41.623zm127.413-24.875c-7.823 0-13.937 2.202-18.264 6.6-4.312 4.395-7.043 10.349-8.148 17.859h52.725c-.557-8.015-3.301-14.072-8.147-18.252-4.899-4.139-10.939-6.207-18.166-6.207zm33.474-55.206v19.419h-67.794v-19.419z" fill="#3fd5ae"/></svg>

<?xml version="1.0" encoding="UTF-8"?>
<svg width="256px" height="160px" viewBox="0 0 256 160" version="1.1" xmlns="http://www.w3.org/2000/svg" xmlns:xlink="http://www.w3.org/1999/xlink">
    <!-- Generator: Sketch 61.2 (89653) - https://sketch.com -->
    <title>Shape</title>
    <desc>Created with Sketch.</desc>
    <g id="Page-1" stroke="none" stroke-width="1" fill="none" fill-rule="evenodd">
        <g id="i-behance" fill="#3FD5AE" fill-rule="nonzero">
            <path d="M105.315,72.315 C110.625,69.644 114.644,66.675 117.38,63.44 C122.28,57.646 124.703,49.972 124.703,40.455 C124.703,31.201 122.281,23.271 117.449,16.631 C109.39,5.821 95.748,0.287 76.448,0 L0,0 L0,156.068 L71.289,156.068 C79.321,156.068 86.753,155.381 93.632,153.972 C100.518,152.546 106.455,149.947 111.499,146.131 C115.989,142.804 119.715,138.709 122.698,133.851 C127.414,126.515 129.761,118.22 129.761,108.965 C129.761,99.994 127.699,92.361 123.604,86.093 C119.462,79.818 113.382,75.229 105.315,72.315 M31.529,27.1 L65.972,27.1 C73.54,27.1 79.778,27.919 84.678,29.54 C90.342,31.881 93.168,36.682 93.168,43.97 C93.168,50.505 91.018,55.08 86.739,57.66 C82.439,60.246 76.857,61.54 70.005,61.54 L31.529,61.54 L31.529,27.1 Z M197.883,37.586 C208.073,37.586 217.237,39.398 225.399,43.001 C233.576,46.601 240.305,52.303 245.6,60.083 C250.432,66.945 253.529,74.905 254.943,83.949 C255.775,89.23 256.103,96.894 255.974,106.855 L255.974,106.855 L170.728,106.855 C171.242,118.424 175.282,126.547 182.986,131.193 C187.646,134.087 193.271,135.547 199.855,135.547 C206.795,135.547 212.474,133.779 216.814,130.258 C219.216,128.34 221.317,125.701 223.126,122.312 L223.126,122.312 L254.355,122.312 C253.529,129.146 249.736,136.107 243.019,143.177 C232.543,154.386 217.87,159.999 199.008,159.999 C183.429,159.999 169.697,155.283 157.808,145.804 C145.88,136.345 139.949,120.935 139.949,99.605 C139.949,79.607 145.32,64.266 156.049,53.596 C166.819,42.946 180.738,37.586 197.883,37.586 Z M70.483,87.359 C77.259,87.421 82.542,88.312 86.302,90.001 C93.031,93.049 96.375,98.617 96.375,106.752 C96.375,116.348 92.908,122.82 85.975,126.236 C82.167,128.06 76.803,128.982 69.945,128.982 L31.529,128.982 L31.529,87.359 L70.483,87.359 Z M197.896,62.484 C190.073,62.484 183.959,64.686 179.632,69.084 C175.32,73.479 172.589,79.433 171.484,86.943 L171.484,86.943 L224.209,86.943 C223.652,78.928 220.908,72.871 216.062,68.691 C211.163,64.552 205.123,62.484 197.896,62.484 Z M231.37,7.278 L231.37,26.697 L163.576,26.697 L163.576,7.278 L231.37,7.278 Z" id="Shape"></path>
        </g>
    </g>
</svg>
